public/avatar/shoe/124.svg

<svg xmlns:xlink="http://www.w3.org/1999/xlink" height="38.3" width="36.05" xmlns="http://www.w3.org/2000/svg"><use height="18.4" transform="translate(9.75 10.85)" width="22.75" xlink:href="#a"/><defs><g id="a" fill-rule="evenodd"><path d="M7.4 4.9q.4.1.6.45 1.15 3.4.4 4.65-1.4 1.9-2.95 1.3l-.3-.3Q.95 15.5-8 14.05q-4.8-.75-5.5-2.15-.55-.65-.55-1.85 0-.95.35-1.25Q-10 4.85-1.5 4.35l8.9.55" fill="#3f0f0f" transform="translate(14.05 4)"/><path d="M6.95 5.95q1.05 2.1.55 3-.15.9-1.6 1.15l-.3-1.2Q1.05 16-12.5 11.45q-1-1.05-.3-1.7 3.8-4 12.1-4.4 7.4-.3 7.65.6" fill="#db7a03" transform="translate(14.05 4)"/><path d="M7.1 6.5q.6 2.05.4 2.45-.15.9-1.6 1.15l-.3-1.2Q1.05 16-12.5 11.45l-.5-1.1q5.8 2.5 11 1.7 5.75-.85 9.1-5.55" fill="#912c09" transform="translate(14.05 4)"/><path d="m4.2-3.05.9 1.1L6.4 2.2q.65 3 .25 3.75-.45.9-3.35 2.7-2.85 1.8-4.65 2.4-3.4 1.2-7.25-.6-2.3.4-3.35-1.1l-.05-.1-.15-.4-.45-2.2q-.15-2 1.95-2.85l5.75-7.05q1.2-.9 4.7-.7 3.1.25 4.4.9" fill="#b74513" transform="translate(14.05 4)"/><path d="M-4.5-2.05q.95-.8 4.1-.7L3.9-2q.5.25 1.3 3.35.8 3.2.35 3.9-.4.7-3.3 2.5-2.95 1.8-4.65 2.4-1.6.55-3.85 0-1.8-.45-2.3-.95-1.55.8-2.4-.4l-.65-2.15q0-1.2 1.8-1.8Q-6.1.8-4.5-2.05" fill="#b74513" transform="translate(14.05 4)"/><path d="M-7.95 5.45q.5-.2.85.35.25.6-.3.75-.55.2-.8 1.8l-.3 1.6q-.45 0-.5-2.05-.15-2.05 1.05-2.45" fill="#b74513" transform="translate(14.05 4)"/><path d="M4.2-3q.45.15.9 1.05L6.4 2.2q.65 3 .25 3.8-.45.9-3.35 2.7-2.85 1.8-4.65 2.4-3.4 1.2-7.25-.6-2.25.35-3.35-1.15L-12 9.3l-.15-.45q-.5-1.2-.45-2.2-.15-2 1.95-2.85l5.8-7.05q1.15-.9 4.65-.65 3.1.2 4.4.9" fill="#21100a" transform="translate(14.05 4)"/><path d="m-4.65-1.8 1 1.3q1.7 1.55 4.8 1.55L4.7.4l.25-.1.25 1.05q.8 3.2.35 3.9L2.25 7.8Q-.7 9.6-2.4 10.2q-1.6.5-3.85 0-1.8-.5-2.3-1-1.55.8-2.4-.4l-.65-2.15q0-1.2 1.8-1.8Q-6.25 1-4.65-1.8" fill="#ad7a4b" transform="translate(14.05 4)"/><path d="m-4.65-1.8.15-.25q.95-.8 4.15-.65 2.95.1 4.25.7.4.2 1.05 2.3L4.7.4l-3.55.65q-3.1 0-4.8-1.55l-1-1.3" fill="#835130" transform="translate(14.05 4)"/><path d="M-7.95 5.45q.5-.2.85.35.25.6-.3.8-.55.15-.75 1.8l-.3 1.55q-.5 0-.55-2.05-.15-2.05 1.05-2.45" fill="#21100a" transform="translate(14.05 4)"/><path d="m7.3 5.75.6.15q-.2.8-1.75 2.35-2.1 2.1-4.9 3.2-7.4 2.9-14.6-1l-.1-.45q6.3 3.35 13 1.5Q4.8 10 7.3 5.75" fill="#3f0f0f" transform="translate(14.05 4)"/><path d="M-1.35 11.15q-3.05-6.7-9.3-7.2-.3-1.5.9-2.8 1.1-1.2 2.4-1.3 3-.2 7.55 1.9 3.6 1.7 4.95 2.95Q6.4 5.95 6.2 6.4 5.45 8.3 4 8.3q-.5.15-.7-.3Q2.1 6.45-.9 5.65L2.2 9.8q0 .35-1.15.9l-2.4.45" fill="#49022e" transform="translate(14.05 4)"/><path d="M4.95 6.1q.15 1.25-1.15 1-.7-.9-3.15-1.8-2.45-.95-3.35-.6Q-1 5.8 1.2 9.45q-1.05.85-2.1.6Q-3.75 4.1-10 3.1q.45-1.95 2.6-2.3Q-5.2.35-.15 2.65 4.8 4.9 4.95 6.1" fill="#ff6eba" transform="translate(14.05 4)"/><path d="M-.9 10.05Q-1.65 8.5-3 6.85l1.8-.75Q.5 8.15 1.2 9.45q-1.05.85-2.1.6M2 3.75q2.9 1.5 2.95 2.35.15 1.25-1.15 1Q3 6.05.35 5.2L2 3.75" fill="#ef4daa" transform="translate(14.05 4)"/><path d="M-8.5 2.6q0 .35-.3.35l-.35-.35q0-.35.35-.35.3 0 .3.35m1.2-.95q0 .35-.3.35l-.3-.35.3-.4q.3 0 .3.4m1.65 1.75-.3.25q-.3 0-.3-.25t.3-.25q.3 0 .3.25m1.25-1.15q0 .35-.35.35l-.45-.35q0-.35.45-.35.35 0 .35.35m-2.4.7q0 .25-.3.25l-.25-.25.25-.3q.3 0 .3.3m3.1 1.2q0 .4-.3.4-.35 0-.35-.4 0-.35.35-.35.3 0 .3.35m1.5-.35.25-.35q.3 0 .3.35 0 .3-.3.3l-.25-.3m-4.2-2.2q0 .3-.15.3-.2 0-.2-.3l.2-.25q.15 0 .15.25m-1.7.25-.25.3-.3-.3q0-.4.3-.4.25 0 .25.4m.45 1.3-.25.25-.2-.25q0-.3.2-.3.25 0 .25.3m1.8-.6-.25.25-.15-.25.15-.3q.25 0 .25.3m.65-1.1-.2.3-.2-.3q0-.3.2-.3t.2.3m-2.25.9-.15.2-.15-.2.15-.1.15.1m-1.95.5-.1.1-.2-.1.2-.05.1.05m5.1.6-.3.2-.2-.2.2-.25q.3 0 .3.25m-.9.65-.2.25-.25-.25q0-.15.25-.15l.2.15m-1.4-.4-.2.1-.2-.1.2-.2.2.2M-7 1.1l-.1.2-.1-.2.1-.1.1.1m.3 1.15-.15.1-.2-.1.2-.1.15.1m1.5.8-.1.1-.2-.1.2-.2.1.2m1.8-.45-.1.2-.1-.2.1-.15.1.15m.55 1.1q0 .25-.35.25-.3 0-.3-.25t.3-.25q.35 0 .35.25m-.45 1.8-.2.3-.25-.3.25-.25.2.25" fill="#ffe6ff" transform="translate(14.05 4)"/><path d="m-3.3 5.5-.2.3-.25-.3.25-.25.2.25m-1.1-.65-.2.15-.1-.15.1-.25.2.25m1.9 1.3-.1.25-.2-.25.2-.25.1.25m1 .8-.15.1-.15-.1.15-.2.15.2m-1.15-1.6-.15.2-.15-.2.15-.1.15.1m.55 1.6-.2.1-.25-.1.25-.2.2.2m.65-.7-.25.2-.25-.2.25-.2q.25 0 .25.2m.15 1.5-.1.25-.2-.25.2-.2.1.2" fill="#ffe6ff" transform="translate(14.05 4)"/><path d="m-1.3 7.75-.1.25-.2-.25.2-.2.1.2m-1.8-3.1-.1.25-.2-.25.2-.2.1.2m-.95.5-.1.1-.15-.1.15-.2.1.2m4.5 3.7-.3.2-.3-.2.3-.25q.3 0 .3.25m-1.15.7-.1.2-.2-.2.2-.15.1.15m.5-1.3-.2.1-.15-.1.15-.1.2.1m-.65.4q0 .2-.25.2l-.2-.2.2-.15q.25 0 .25.15M-.5 7.4l-.2.2-.1-.2.1-.1.2.1m.35 2.05.15.1-.15.15-.15-.15.15-.1m.75 0-.15.05-.1-.05.1-.1.15.1m-2.5-1.8-.1.1-.05-.1.05-.2.1.2m1.5-3.4-.2.15-.3-.15.3-.25.2.25m1.2 0-.3.15q-.3 0-.3-.15L.5 4l.3.25M-2.5 2.8l-.2.3-.2-.3q0-.3.2-.3t.2.3m-1.05-.85q0 .3-.3.3l-.35-.3.35-.3q.3 0 .3.3m-.15 1.1-.15.15-.15-.15.15-.2.15.2m-.9-1.5-.15.15-.2-.15.2-.2.15.2m-1.55-.45-.1.2-.15-.2.15-.1.1.1m.35.75-.15.1-.2-.1.2-.2.15.2M-.55 3.1q0 .55-.55.55t-.55-.55q0-.55.55-.55t.55.55M1.6 5.05l-.2.2-.2-.2q0-.15.2-.15l.2.15m1.5.25-.25.25-.25-.25q0-.25.25-.25l.25.25" fill="#ffe6ff" transform="translate(14.05 4)"/><path d="M2.3 4.55q0 .45-.5.45t-.5-.45q0-.55.5-.55t.5.55M3.9 6.2l-.2.25-.25-.25.25-.15q.2 0 .2.15m.65-.45-.2.15-.25-.15.25-.2.2.2m-1.8 0-.25.15-.2-.15.2-.2.25.2M.4 4.7l-.2.25q-.15 0-.15-.25 0-.15.15-.15l.2.15M.15 3.45l-.1.1-.15-.1.15-.1.1.1m2.7 1.15-.15.1-.15-.1.15-.15.15.15m1.05.85-.15.1-.15-.1.15-.2.15.2M.8 3.65l-.1.1-.2-.1.2-.2.1.2M-1.9 2.3l-.2.2-.2-.2q0-.1.2-.1l.2.1m-1-.3-.1.2-.15-.2.15-.15.1.15m.6 2.1-.2.2-.1-.2.1-.1.2.1m6.65 2.55-.1.15-.15-.15q0-.25.15-.25l.1.25" fill="#ffe6ff" transform="translate(14.05 4)"/><path d="M-5.55 4.95q0 2.1-2.1 2.1-2.05 0-2.05-2.1 0-2.05 2.05-2.05 2.1 0 2.1 2.05" fill="#2d021f" transform="translate(14.05 4)"/><path d="M-9.2 4.95q0-1.5 1.55-1.5Q-6 3.45-6 4.95-6 6.5-7.65 6.5q-1.55 0-1.55-1.55" fill="#ff00e1" transform="translate(14.05 4)"/><path d="m-7.95 3.55-.35.1.65-.2Q-6 3.45-6 4.95-6 6.5-7.65 6.5q-1.55 0-1.55-1.55.2 1 1.25 1 1.25 0 1.25-1.2t-1.25-1.2" fill="#84037b" transform="translate(14.05 4)"/><path d="M-7.65 4.75q0 .7-.65.7-.7 0-.7-.7 0-.65.7-.65.65 0 .65.65" fill="#fcfcfc" transform="translate(14.05 4)"/></g></defs></svg>

<?xml version="1.0" encoding="UTF-8" standalone="no"?>
<svg xmlns:xlink="http://www.w3.org/1999/xlink" height="38.3px" width="36.05px" xmlns="http://www.w3.org/2000/svg">
  <g transform="matrix(1.0, 0.0, 0.0, 1.0, 23.8, 14.85)">
    <use height="18.4" transform="matrix(1.0, 0.0, 0.0, 1.0, -14.05, -4.0)" width="22.75" xlink:href="#shape0"/>
  </g>
  <defs>
    <g id="shape0" transform="matrix(1.0, 0.0, 0.0, 1.0, 14.05, 4.0)">
      <path d="M7.4 4.9 Q7.8 5.0 8.0 5.35 9.15 8.75 8.4 10.0 7.0 11.9 5.45 11.3 L5.15 11.0 Q0.95 15.5 -8.0 14.05 -12.8 13.3 -13.5 11.9 -14.05 11.25 -14.05 10.05 -14.05 9.1 -13.7 8.8 -10.0 4.85 -1.5 4.35 L7.4 4.9" fill="#3f0f0f" fill-rule="evenodd" stroke="none"/>
      <path d="M6.95 5.95 Q8.0 8.05 7.5 8.95 7.35 9.85 5.9 10.1 L5.6 8.9 Q1.05 16.0 -12.5 11.45 -13.5 10.4 -12.8 9.75 -9.0 5.75 -0.7 5.35 6.7 5.05 6.95 5.95" fill="#db7a03" fill-rule="evenodd" stroke="none"/>
      <path d="M7.1 6.5 Q7.7 8.55 7.5 8.95 7.35 9.85 5.9 10.1 L5.6 8.9 Q1.05 16.0 -12.5 11.45 L-13.0 10.35 Q-7.2 12.85 -2.0 12.05 3.75 11.2 7.1 6.5" fill="#912c09" fill-rule="evenodd" stroke="none"/>
      <path d="M4.2 -3.05 L5.1 -1.95 6.4 2.2 Q7.05 5.2 6.65 5.95 6.2 6.85 3.3 8.65 0.45 10.45 -1.35 11.05 -4.75 12.25 -8.6 10.45 -10.9 10.85 -11.95 9.35 L-12.0 9.25 -12.15 8.85 -12.6 6.65 Q-12.75 4.65 -10.65 3.8 L-4.9 -3.25 Q-3.7 -4.15 -0.2 -3.95 2.9 -3.7 4.2 -3.05" fill="#b74513" fill-rule="evenodd" stroke="none"/>
      <path d="M-4.5 -2.05 Q-3.55 -2.85 -0.4 -2.75 L3.9 -2.0 Q4.4 -1.75 5.2 1.35 6.0 4.55 5.55 5.25 5.15 5.95 2.25 7.75 -0.7 9.55 -2.4 10.15 -4.0 10.7 -6.25 10.15 -8.05 9.7 -8.55 9.2 -10.1 10.0 -10.95 8.8 L-11.6 6.65 Q-11.6 5.45 -9.8 4.85 -6.1 0.8 -4.5 -2.05" fill="#b74513" fill-rule="evenodd" stroke="none"/>
      <path d="M-7.95 5.45 Q-7.45 5.25 -7.1 5.8 -6.85 6.4 -7.4 6.55 -7.95 6.75 -8.2 8.35 L-8.5 9.95 Q-8.95 9.95 -9.0 7.9 -9.15 5.85 -7.95 5.45" fill="#b74513" fill-rule="evenodd" stroke="none"/>
      <path d="M4.2 -3.0 Q4.65 -2.85 5.1 -1.95 L6.4 2.2 Q7.05 5.2 6.65 6.0 6.2 6.9 3.3 8.7 0.45 10.5 -1.35 11.1 -4.75 12.3 -8.6 10.5 -10.85 10.85 -11.95 9.35 L-12.0 9.3 -12.15 8.85 Q-12.65 7.65 -12.6 6.65 -12.75 4.65 -10.65 3.8 L-4.85 -3.25 Q-3.7 -4.15 -0.2 -3.9 2.9 -3.7 4.2 -3.0" fill="#21100a" fill-rule="evenodd" stroke="none"/>
      <path d="M-4.65 -1.8 L-3.65 -0.5 Q-1.95 1.05 1.15 1.05 L4.7 0.4 4.95 0.3 5.2 1.35 Q6.0 4.55 5.55 5.25 L2.25 7.8 Q-0.7 9.6 -2.4 10.2 -4.0 10.7 -6.25 10.2 -8.05 9.7 -8.55 9.2 -10.1 10.0 -10.95 8.8 L-11.6 6.65 Q-11.6 5.45 -9.8 4.85 -6.25 1.0 -4.65 -1.8" fill="#ad7a4b" fill-rule="evenodd" stroke="none"/>
      <path d="M-4.65 -1.8 L-4.5 -2.05 Q-3.55 -2.85 -0.35 -2.7 2.6 -2.6 3.9 -2.0 4.3 -1.8 4.95 0.3 L4.7 0.4 1.15 1.05 Q-1.95 1.05 -3.65 -0.5 L-4.65 -1.8" fill="#835130" fill-rule="evenodd" stroke="none"/>
      <path d="M-7.95 5.45 Q-7.45 5.25 -7.1 5.8 -6.85 6.4 -7.4 6.6 -7.95 6.75 -8.15 8.4 L-8.45 9.95 Q-8.95 9.95 -9.0 7.9 -9.15 5.85 -7.95 5.45" fill="#21100a" fill-rule="evenodd" stroke="none"/>
      <path d="M7.3 5.75 L7.9 5.9 Q7.7 6.7 6.15 8.25 4.05 10.35 1.25 11.45 -6.15 14.35 -13.35 10.45 L-13.45 10.0 Q-7.15 13.35 -0.45 11.5 4.8 10.0 7.3 5.75" fill="#3f0f0f" fill-rule="evenodd" stroke="none"/>
      <path d="M-1.35 11.15 Q-4.4 4.45 -10.65 3.95 -10.95 2.45 -9.75 1.15 -8.65 -0.05 -7.35 -0.15 -4.35 -0.35 0.2 1.75 3.8 3.45 5.15 4.7 6.4 5.95 6.2 6.4 5.45 8.3 4.0 8.3 3.5 8.45 3.3 8.0 2.1 6.45 -0.9 5.65 L2.2 9.8 Q2.2 10.15 1.05 10.7 L-1.35 11.15" fill="#49022e" fill-rule="evenodd" stroke="none"/>
      <path d="M4.95 6.1 Q5.1 7.35 3.8 7.1 3.1 6.2 0.65 5.3 -1.8 4.35 -2.7 4.7 -1.0 5.8 1.2 9.45 0.15 10.3 -0.9 10.05 -3.75 4.1 -10.0 3.1 -9.55 1.15 -7.4 0.8 -5.2 0.35 -0.15 2.65 4.8 4.9 4.95 6.1" fill="#ff6eba" fill-rule="evenodd" stroke="none"/>
      <path d="M-0.9 10.05 Q-1.65 8.5 -3.0 6.85 L-1.2 6.1 Q0.5 8.15 1.2 9.45 0.15 10.3 -0.9 10.05" fill="#ef4daa" fill-rule="evenodd" stroke="none"/>
      <path d="M2.0 3.75 Q4.9 5.25 4.95 6.1 5.1 7.35 3.8 7.1 3.0 6.05 0.35 5.2 L2.0 3.75" fill="#ef4daa" fill-rule="evenodd" stroke="none"/>
      <path d="M-8.5 2.6 Q-8.5 2.95 -8.8 2.95 L-9.15 2.6 Q-9.15 2.25 -8.8 2.25 -8.5 2.25 -8.5 2.6" fill="#ffe6ff" fill-rule="evenodd" stroke="none"/>
      <path d="M-7.3 1.65 Q-7.3 2.0 -7.6 2.0 L-7.9 1.65 -7.6 1.25 Q-7.3 1.25 -7.3 1.65" fill="#ffe6ff" fill-rule="evenodd" stroke="none"/>
      <path d="M-5.65 3.4 L-5.95 3.65 Q-6.25 3.65 -6.25 3.4 -6.25 3.15 -5.95 3.15 -5.65 3.15 -5.65 3.4" fill="#ffe6ff" fill-rule="evenodd" stroke="none"/>
      <path d="M-4.4 2.25 Q-4.4 2.6 -4.75 2.6 L-5.2 2.25 Q-5.2 1.9 -4.75 1.9 -4.4 1.9 -4.4 2.25" fill="#ffe6ff" fill-rule="evenodd" stroke="none"/>
      <path d="M-6.8 2.95 Q-6.8 3.2 -7.1 3.2 L-7.35 2.95 -7.1 2.65 Q-6.8 2.65 -6.8 2.95" fill="#ffe6ff" fill-rule="evenodd" stroke="none"/>
      <path d="M-3.7 4.15 Q-3.7 4.55 -4.0 4.55 -4.35 4.55 -4.35 4.15 -4.35 3.8 -4.0 3.8 -3.7 3.8 -3.7 4.15" fill="#ffe6ff" fill-rule="evenodd" stroke="none"/>
      <path d="M-2.2 3.8 L-1.95 3.45 Q-1.65 3.45 -1.65 3.8 -1.65 4.1 -1.95 4.1 L-2.2 3.8" fill="#ffe6ff" fill-rule="evenodd" stroke="none"/>
      <path d="M-6.4 1.6 Q-6.4 1.9 -6.55 1.9 -6.75 1.9 -6.75 1.6 L-6.55 1.35 Q-6.4 1.35 -6.4 1.6" fill="#ffe6ff" fill-rule="evenodd" stroke="none"/>
      <path d="M-8.1 1.85 L-8.35 2.15 -8.65 1.85 Q-8.65 1.45 -8.35 1.45 -8.1 1.45 -8.1 1.85" fill="#ffe6ff" fill-rule="evenodd" stroke="none"/>
      <path d="M-7.65 3.15 L-7.9 3.4 -8.1 3.15 Q-8.1 2.85 -7.9 2.85 -7.65 2.85 -7.65 3.15" fill="#ffe6ff" fill-rule="evenodd" stroke="none"/>
      <path d="M-5.85 2.55 L-6.1 2.8 -6.25 2.55 -6.1 2.25 Q-5.85 2.25 -5.85 2.55" fill="#ffe6ff" fill-rule="evenodd" stroke="none"/>
      <path d="M-5.2 1.45 L-5.4 1.75 -5.6 1.45 Q-5.6 1.15 -5.4 1.15 -5.2 1.15 -5.2 1.45" fill="#ffe6ff" fill-rule="evenodd" stroke="none"/>
      <path d="M-7.45 2.35 L-7.6 2.55 -7.75 2.35 -7.6 2.25 -7.45 2.35" fill="#ffe6ff" fill-rule="evenodd" stroke="none"/>
      <path d="M-9.4 2.85 L-9.5 2.95 -9.7 2.85 -9.5 2.8 -9.4 2.85" fill="#ffe6ff" fill-rule="evenodd" stroke="none"/>
      <path d="M-4.3 3.45 L-4.6 3.65 -4.8 3.45 -4.6 3.2 Q-4.3 3.2 -4.3 3.45" fill="#ffe6ff" fill-rule="evenodd" stroke="none"/>
      <path d="M-5.2 4.1 L-5.4 4.35 -5.65 4.1 Q-5.65 3.95 -5.4 3.95 L-5.2 4.1" fill="#ffe6ff" fill-rule="evenodd" stroke="none"/>
      <path d="M-6.6 3.7 L-6.8 3.8 -7.0 3.7 -6.8 3.5 -6.6 3.7" fill="#ffe6ff" fill-rule="evenodd" stroke="none"/>
      <path d="M-7.0 1.1 L-7.1 1.3 -7.2 1.1 -7.1 1.0 -7.0 1.1" fill="#ffe6ff" fill-rule="evenodd" stroke="none"/>
      <path d="M-6.7 2.25 L-6.85 2.35 -7.05 2.25 -6.85 2.15 -6.7 2.25" fill="#ffe6ff" fill-rule="evenodd" stroke="none"/>
      <path d="M-5.2 3.05 L-5.3 3.15 -5.5 3.05 -5.3 2.85 -5.2 3.05" fill="#ffe6ff" fill-rule="evenodd" stroke="none"/>
      <path d="M-3.4 2.6 L-3.5 2.8 -3.6 2.6 -3.5 2.45 -3.4 2.6" fill="#ffe6ff" fill-rule="evenodd" stroke="none"/>
      <path d="M-2.85 3.7 Q-2.85 3.95 -3.2 3.95 -3.5 3.95 -3.5 3.7 -3.5 3.45 -3.2 3.45 -2.85 3.45 -2.85 3.7" fill="#ffe6ff" fill-rule="evenodd" stroke="none"/>
      <path d="M-3.3 5.5 L-3.5 5.8 -3.75 5.5 -3.5 5.25 -3.3 5.5" fill="#ffe6ff" fill-rule="evenodd" stroke="none"/>
      <path d="M-3.3 5.5 L-3.5 5.8 -3.75 5.5 -3.5 5.25 -3.3 5.5" fill="#ffe6ff" fill-rule="evenodd" stroke="none"/>
      <path d="M-4.4 4.85 L-4.6 5.0 -4.7 4.85 -4.6 4.6 -4.4 4.85" fill="#ffe6ff" fill-rule="evenodd" stroke="none"/>
      <path d="M-2.5 6.15 L-2.6 6.4 -2.8 6.15 -2.6 5.9 -2.5 6.15" fill="#ffe6ff" fill-rule="evenodd" stroke="none"/>
      <path d="M-1.5 6.95 L-1.65 7.05 -1.8 6.95 -1.65 6.75 -1.5 6.95" fill="#ffe6ff" fill-rule="evenodd" stroke="none"/>
      <path d="M-2.65 5.35 L-2.8 5.55 -2.95 5.35 -2.8 5.25 -2.65 5.35" fill="#ffe6ff" fill-rule="evenodd" stroke="none"/>
      <path d="M-2.1 6.95 L-2.3 7.05 -2.55 6.95 -2.3 6.75 -2.1 6.95" fill="#ffe6ff" fill-rule="evenodd" stroke="none"/>
      <path d="M-1.45 6.25 L-1.7 6.45 -1.95 6.25 -1.7 6.05 Q-1.45 6.05 -1.45 6.25" fill="#ffe6ff" fill-rule="evenodd" stroke="none"/>
      <path d="M-1.3 7.75 L-1.4 8.0 -1.6 7.75 -1.4 7.55 -1.3 7.75" fill="#ffe6ff" fill-rule="evenodd" stroke="none"/>
      <path d="M-1.3 7.75 L-1.4 8.0 -1.6 7.75 -1.4 7.55 -1.3 7.75" fill="#ffe6ff" fill-rule="evenodd" stroke="none"/>
      <path d="M-3.1 4.65 L-3.2 4.9 -3.4 4.65 -3.2 4.45 -3.1 4.65" fill="#ffe6ff" fill-rule="evenodd" stroke="none"/>
      <path d="M-4.05 5.15 L-4.15 5.25 -4.3 5.15 -4.15 4.95 -4.05 5.15" fill="#ffe6ff" fill-rule="evenodd" stroke="none"/>
      <path d="M0.45 8.85 L0.15 9.05 -0.15 8.85 0.15 8.6 Q0.45 8.6 0.45 8.85" fill="#ffe6ff" fill-rule="evenodd" stroke="none"/>
      <path d="M-0.7 9.55 L-0.8 9.75 -1.0 9.55 -0.8 9.4 -0.7 9.55" fill="#ffe6ff" fill-rule="evenodd" stroke="none"/>
      <path d="M-0.2 8.25 L-0.4 8.35 -0.55 8.25 -0.4 8.15 -0.2 8.25" fill="#ffe6ff" fill-rule="evenodd" stroke="none"/>
      <path d="M-0.85 8.65 Q-0.85 8.85 -1.1 8.85 L-1.3 8.65 -1.1 8.5 Q-0.85 8.5 -0.85 8.65" fill="#ffe6ff" fill-rule="evenodd" stroke="none"/>
      <path d="M-0.5 7.4 L-0.7 7.6 -0.8 7.4 -0.7 7.3 -0.5 7.4" fill="#ffe6ff" fill-rule="evenodd" stroke="none"/>
      <path d="M-0.15 9.45 L0.0 9.55 -0.15 9.7 -0.3 9.55 -0.15 9.45" fill="#ffe6ff" fill-rule="evenodd" stroke="none"/>
      <path d="M0.6 9.45 L0.45 9.5 0.35 9.45 0.45 9.35 0.6 9.45" fill="#ffe6ff" fill-rule="evenodd" stroke="none"/>
      <path d="M-1.9 7.65 L-2.0 7.75 -2.05 7.65 -2.0 7.45 -1.9 7.65" fill="#ffe6ff" fill-rule="evenodd" stroke="none"/>
      <path d="M-0.4 4.25 L-0.6 4.4 -0.9 4.25 -0.6 4.0 -0.4 4.25" fill="#ffe6ff" fill-rule="evenodd" stroke="none"/>
      <path d="M0.8 4.25 L0.5 4.4 Q0.2 4.4 0.2 4.25 L0.5 4.0 0.8 4.25" fill="#ffe6ff" fill-rule="evenodd" stroke="none"/>
      <path d="M-2.5 2.8 L-2.7 3.1 -2.9 2.8 Q-2.9 2.5 -2.7 2.5 -2.5 2.5 -2.5 2.8" fill="#ffe6ff" fill-rule="evenodd" stroke="none"/>
      <path d="M-3.55 1.95 Q-3.55 2.25 -3.85 2.25 L-4.2 1.95 -3.85 1.65 Q-3.55 1.65 -3.55 1.95" fill="#ffe6ff" fill-rule="evenodd" stroke="none"/>
      <path d="M-3.7 3.05 L-3.85 3.2 -4.0 3.05 -3.85 2.85 -3.7 3.05" fill="#ffe6ff" fill-rule="evenodd" stroke="none"/>
      <path d="M-4.6 1.55 L-4.75 1.7 -4.95 1.55 -4.75 1.35 -4.6 1.55" fill="#ffe6ff" fill-rule="evenodd" stroke="none"/>
      <path d="M-6.15 1.1 L-6.25 1.3 -6.4 1.1 -6.25 1.0 -6.15 1.1" fill="#ffe6ff" fill-rule="evenodd" stroke="none"/>
      <path d="M-5.8 1.85 L-5.95 1.95 -6.15 1.85 -5.95 1.65 -5.8 1.85" fill="#ffe6ff" fill-rule="evenodd" stroke="none"/>
      <path d="M-0.55 3.1 Q-0.55 3.65 -1.1 3.65 -1.65 3.65 -1.65 3.1 -1.65 2.55 -1.1 2.55 -0.55 2.55 -0.55 3.1" fill="#ffe6ff" fill-rule="evenodd" stroke="none"/>
      <path d="M1.6 5.05 L1.4 5.25 1.2 5.05 Q1.2 4.9 1.4 4.9 L1.6 5.05" fill="#ffe6ff" fill-rule="evenodd" stroke="none"/>
      <path d="M3.1 5.3 L2.85 5.55 2.6 5.3 Q2.6 5.05 2.85 5.05 L3.1 5.3" fill="#ffe6ff" fill-rule="evenodd" stroke="none"/>
      <path d="M2.3 4.55 Q2.3 5.0 1.8 5.0 1.3 5.0 1.3 4.55 1.3 4.0 1.8 4.0 2.3 4.0 2.3 4.55" fill="#ffe6ff" fill-rule="evenodd" stroke="none"/>
      <path d="M3.9 6.2 L3.7 6.45 3.45 6.2 3.7 6.05 Q3.9 6.05 3.9 6.2" fill="#ffe6ff" fill-rule="evenodd" stroke="none"/>
      <path d="M4.55 5.75 L4.35 5.9 4.1 5.75 4.35 5.55 4.55 5.75" fill="#ffe6ff" fill-rule="evenodd" stroke="none"/>
      <path d="M2.75 5.75 L2.5 5.9 2.3 5.75 2.5 5.55 2.75 5.75" fill="#ffe6ff" fill-rule="evenodd" stroke="none"/>
      <path d="M0.4 4.7 L0.2 4.95 Q0.05 4.95 0.05 4.7 0.05 4.55 0.2 4.55 L0.4 4.7" fill="#ffe6ff" fill-rule="evenodd" stroke="none"/>
      <path d="M0.15 3.45 L0.05 3.55 -0.1 3.45 0.05 3.35 0.15 3.45" fill="#ffe6ff" fill-rule="evenodd" stroke="none"/>
      <path d="M2.85 4.6 L2.7 4.7 2.55 4.6 2.7 4.45 2.85 4.6" fill="#ffe6ff" fill-rule="evenodd" stroke="none"/>
      <path d="M3.9 5.45 L3.75 5.55 3.6 5.45 3.75 5.25 3.9 5.45" fill="#ffe6ff" fill-rule="evenodd" stroke="none"/>
      <path d="M0.8 3.65 L0.7 3.75 0.5 3.65 0.7 3.45 0.8 3.65" fill="#ffe6ff" fill-rule="evenodd" stroke="none"/>
      <path d="M-1.9 2.3 L-2.1 2.5 -2.3 2.3 Q-2.3 2.2 -2.1 2.2 L-1.9 2.3" fill="#ffe6ff" fill-rule="evenodd" stroke="none"/>
      <path d="M-2.9 2.0 L-3.0 2.2 -3.15 2.0 -3.0 1.85 -2.9 2.0" fill="#ffe6ff" fill-rule="evenodd" stroke="none"/>
      <path d="M-2.3 4.1 L-2.5 4.3 -2.6 4.1 -2.5 4.0 -2.3 4.1" fill="#ffe6ff" fill-rule="evenodd" stroke="none"/>
      <path d="M4.35 6.65 L4.25 6.8 4.1 6.65 Q4.1 6.4 4.25 6.4 L4.35 6.65" fill="#ffe6ff" fill-rule="evenodd" stroke="none"/>
      <path d="M-5.55 4.95 Q-5.55 7.05 -7.65 7.05 -9.7 7.05 -9.7 4.95 -9.7 2.9 -7.65 2.9 -5.55 2.9 -5.55 4.95" fill="#2d021f" fill-rule="evenodd" stroke="none"/>
      <path d="M-9.2 4.95 Q-9.2 3.45 -7.65 3.45 -6.0 3.45 -6.0 4.95 -6.0 6.5 -7.65 6.5 -9.2 6.5 -9.2 4.95" fill="#ff00e1" fill-rule="evenodd" stroke="none"/>
      <path d="M-7.95 3.55 L-8.3 3.65 -7.65 3.45 Q-6.0 3.45 -6.0 4.95 -6.0 6.5 -7.65 6.5 -9.2 6.5 -9.2 4.95 -9.0 5.95 -7.95 5.95 -6.7 5.95 -6.7 4.75 -6.7 3.55 -7.95 3.55" fill="#84037b" fill-rule="evenodd" stroke="none"/>
      <path d="M-7.65 4.75 Q-7.65 5.45 -8.3 5.45 -9.0 5.45 -9.0 4.75 -9.0 4.1 -8.3 4.1 -7.65 4.1 -7.65 4.75" fill="#fcfcfc" fill-rule="evenodd" stroke="none"/>
    </g>
  </defs>
</svg>
